X: 22431
T: Lads And Lasses
R: three-two
M: 3/2
K: Gmajor
|:G4 GAB2 A2G2|B2d2- d2g2 e4|d2ed c2dc B2cB|B2D2 GAB2 A2G2:|
[D4A4] FGA2 d2A2|FGA2 A2d2 B4|g2ag f2e2 ^cdf2|B2b2 a2g2 f2e2|
g4 Bcd2 ded2|e4 EFG2 F2ED|G4 A4 B2dc|B2e2 ABc2 B2G2||

